X:1
T:Rapid City, 11.11.11.11
T:Rapid City, 11.11.11.11
T:Hart Pease Danks, 1881
T:Public Domain Courtesy of the Cyber Hymnal™
C:Hart Pease Danks, 1881
Z:Public Domain
Z:Courtesy of the Cyber Hymnal™
%%score ( 1 2 ) ( 3 4 )
L:1/8
Q:1/4=115
M:2/2
K:Ab
V:1 treble 
V:2 treble 
V:3 bass 
V:4 bass 
V:1
 [CE]2 [CA]2 [Ec]2 [EA]2 | [FA]4 [DF]2 z2 | [DF]2 [FA]2 [EG]2 [DF]2 | [CE]6 z2 | %4
 [EA]2 [EB]2 [Ec]2 [F=d]2 | [Ee]4 [EB]2 z2 | [EB]2 [EA]2 [EG]2 [=DF]2 | E6 z2 | %8
 E2 [EF]2 [EG]2 [EA]2 | [EB]4 [EG]4 | [EA]2 (Bc) [Ed]2 [Ec]2 | (c4 B2) z2 | %12
 [EA]2 [EA]2 [EG]2 [DF]2 | [CE]4 [CA]4 | [FB]2 [Fc]2 [Fd]2 G2 | [CA]8 |] %16
V:2
 x8 | x8 | x8 | x8 | x8 | x8 | x8 | E6 x2 | E2 x6 | x8 | x2 E2 x4 | E6 x2 | x8 | x8 | x6 (ED) | %15
 x8 |] %16
V:3
 [A,,A,]2 [A,,A,]2 [A,,A,]2 [C,A,]2 | [D,A,]4 [D,A,]2 z2 | [D,A,]2 [D,A,]2 [D,A,]2 [D,A,]2 | %3
 [A,,A,]6 z2 | [C,A,]2 [E,G,]2 A,2 [A,B,]2 | [G,B,]4 [G,B,]2 z2 | [G,B,]2 [A,C]2 B,2 [B,,A,]2 | %7
 [E,G,]6 z2 | [E,G,]2 [E,A,]2 [E,B,]2 [E,C]2 | [E,D]4 B,4 | %10
 [C,A,]2 ([B,,G,][A,,A,]) [G,,B,]2 [A,,A,]2 | (A,4 G,2) z2 | [C,A,]2 [C,A,]2 [D,A,]2 [D,A,]2 | %13
 [A,,A,]4 [F,A,]4 | [D,A,]2 [C,=A,]2 [B,,B,]2 [E,B,]2 | [A,,A,]8 |] %16
V:4
 x8 | x8 | x8 | x8 | x4 A,2 x2 | x8 | x4 B,2 x2 | x8 | x8 | x4 (E,2 D,2) | x8 | E,6 x2 | x8 | x8 | %14
 x8 | x8 |] %16

